icons/numix/16x16/status/caffeine-cup-empty.svg

<?xml version="1.0" encoding="UTF-8" standalone="no"?>
<svg
   xmlns:dc="http://purl.org/dc/elements/1.1/"
   xmlns:cc="http://creativecommons.org/ns#"
   xmlns:rdf="http://www.w3.org/1999/02/22-rdf-syntax-ns#"
   xmlns:svg="http://www.w3.org/2000/svg"
   xmlns="http://www.w3.org/2000/svg"
   xmlns:sodipodi="http://sodipodi.sourceforge.net/DTD/sodipodi-0.dtd"
   xmlns:inkscape="http://www.inkscape.org/namespaces/inkscape"
   width="16"
   height="16"
   viewBox="0 0 16 16"
   id="svg3084"
   version="1.1"
   inkscape:version="0.48.5 r10040"
   sodipodi:docname="caffeine-cup-empty.svg">
  <metadata
     id="metadata3118">
    <rdf:RDF>
      <cc:Work
         rdf:about="">
        <dc:format>image/svg+xml</dc:format>
        <dc:type
           rdf:resource="http://purl.org/dc/dcmitype/StillImage" />
      </cc:Work>
    </rdf:RDF>
  </metadata>
  <sodipodi:namedview
     pagecolor="#ffffff"
     bordercolor="#666666"
     borderopacity="1"
     objecttolerance="10"
     gridtolerance="10"
     guidetolerance="10"
     inkscape:pageopacity="0"
     inkscape:pageshadow="2"
     inkscape:window-width="1280"
     inkscape:window-height="998"
     id="namedview3116"
     showgrid="false"
     inkscape:zoom="29.5"
     inkscape:cx="4.446878"
     inkscape:cy="6.752063"
     inkscape:window-x="0"
     inkscape:window-y="0"
     inkscape:window-maximized="1"
     inkscape:current-layer="svg3084" />
  <defs
     id="defs3086">
    <filter
       id="0"
       filterUnits="objectBoundingBox"
       x="0"
       y="0"
       width="16"
       height="16">
      <feColorMatrix
         type="matrix"
         in="SourceGraphic"
         values="0 0 0 0 1 0 0 0 0 1 0 0 0 0 1 0 0 0 1 0"
         id="feColorMatrix3089" />
    </filter>
    <mask
       id="1">
      <g
         filter="url(#0)"
         id="g3092">
        <rect
           width="16"
           height="16"
           fill-opacity="0.302"
           id="rect3094" />
      </g>
    </mask>
    <clipPath
       id="2">
      <rect
         width="16"
         height="16"
         id="rect3097" />
    </clipPath>
    <g
       id="3"
       clip-path="url(#2)">
      <path
         d="M 11.035156 8.582031 C 11.503906 8.582031 11.878906 8.742188 12.152344 9.0625 C 12.421875 9.378906 12.558594 9.816406 12.558594 10.371094 C 12.558594 10.941406 12.425781 11.378906 12.164062 11.691406 C 11.902344 12 11.527344 12.15625 11.039062 12.15625 C 10.742188 12.15625 10.402344 12.101562 10.019531 11.992188 L 10.019531 12.4375 C 10.316406 12.550781 10.679688 12.605469 11.117188 12.605469 C 11.746094 12.605469 12.234375 12.410156 12.578125 12.023438 C 12.921875 11.632812 13.089844 11.082031 13.089844 10.363281 C 13.089844 9.914062 13.007812 9.523438 12.84375 9.183594 C 12.679688 8.847656 12.441406 8.585938 12.128906 8.40625 C 11.816406 8.222656 11.449219 8.128906 11.027344 8.128906 C 10.578125 8.128906 10.1875 8.214844 9.851562 8.378906 L 10.0625 8.816406 C 10.386719 8.660156 10.710938 8.582031 11.035156 8.582031 "
         id="path3100" />
    </g>
  </defs>
  <path
     style="fill:#ececec;fill-opacity:1"
     inkscape:connector-curvature="0"
     id="path3110"
     d="m 5.367188,9.941406 3.644531,0 c 1.355469,0 2.457031,0.867188 2.457031,1.9375 0,1.070313 -1.101562,1.9375 -2.457031,1.9375 l -3.644531,0 c -1.355469,0 -2.457032,-0.867187 -2.457032,-1.9375 0,-1.070312 1.101563,-1.9375 2.457032,-1.9375 z" />
  <path
     style="fill:#ececec;fill-opacity:1"
     inkscape:connector-curvature="0"
     id="path3112"
     d="m 2.910156,6.574219 8.558594,0 0,5.332031 -8.558594,0 z" />
  <path
     style="fill:#ececec;fill-opacity:1"
     inkscape:connector-curvature="0"
     id="path3114"
     d="m 11.035156,7.855469 c 0.46875,0 0.84375,0.160156 1.117188,0.480469 0.269531,0.316406 0.40625,0.753906 0.40625,1.304687 0,0.570313 -0.132813,1.011719 -0.394532,1.324219 -0.261718,0.308594 -0.636718,0.464844 -1.125,0.464844 -0.296874,0 -0.636718,-0.05469 -1.019531,-0.164063 l 0,0.445313 c 0.296875,0.109374 0.660157,0.167968 1.097657,0.167968 0.628906,0 1.117187,-0.195312 1.460937,-0.582031 0.34375,-0.390625 0.511719,-0.945313 0.511719,-1.660156 0,-0.449219 -0.08203,-0.84375 -0.246094,-1.179688 -0.164062,-0.335937 -0.402344,-0.597656 -0.714844,-0.78125 -0.3125,-0.179687 -0.679687,-0.273437 -1.101562,-0.273437 -0.449219,0 -0.839844,0.085937 -1.175782,0.25 l 0.210938,0.4375 c 0.324219,-0.15625 0.648438,-0.234375 0.972656,-0.234375" />
</svg>

<svg xmlns="http://www.w3.org/2000/svg" xmlns:xlink="http://www.w3.org/1999/xlink" width="16" height="16" viewBox="0 0 16 16">
 <defs>
  <filter id="0" filterUnits="objectBoundingBox" x="0" y="0" width="16" height="16">
   <feColorMatrix type="matrix" in="SourceGraphic" values="0 0 0 0 1 0 0 0 0 1 0 0 0 0 1 0 0 0 1 0"/>
  </filter>
  <mask id="1">
   <g filter="url(#0)">
    <rect width="16" height="16" fill-opacity="0.302"/>
   </g>
  </mask>
  <clipPath id="2">
   <rect width="16" height="16"/>
  </clipPath>
  <g id="3" clip-path="url(#2)">
   <path d="M 11.035156 8.582031 C 11.503906 8.582031 11.878906 8.742188 12.152344 9.0625 C 12.421875 9.378906 12.558594 9.816406 12.558594 10.371094 C 12.558594 10.941406 12.425781 11.378906 12.164062 11.691406 C 11.902344 12 11.527344 12.15625 11.039062 12.15625 C 10.742188 12.15625 10.402344 12.101562 10.019531 11.992188 L 10.019531 12.4375 C 10.316406 12.550781 10.679688 12.605469 11.117188 12.605469 C 11.746094 12.605469 12.234375 12.410156 12.578125 12.023438 C 12.921875 11.632812 13.089844 11.082031 13.089844 10.363281 C 13.089844 9.914062 13.007812 9.523438 12.84375 9.183594 C 12.679688 8.847656 12.441406 8.585938 12.128906 8.40625 C 11.816406 8.222656 11.449219 8.128906 11.027344 8.128906 C 10.578125 8.128906 10.1875 8.214844 9.851562 8.378906 L 10.0625 8.816406 C 10.386719 8.660156 10.710938 8.582031 11.035156 8.582031 "/>
  </g>
 </defs>
 <g>
  <path d="M 5.367188 10.667969 L 9.011719 10.667969 C 10.367188 10.667969 11.46875 11.539062 11.46875 12.609375 C 11.46875 13.679688 10.367188 14.546875 9.011719 14.546875 L 5.367188 14.546875 C 4.011719 14.546875 2.910156 13.679688 2.910156 12.609375 C 2.910156 11.539062 4.011719 10.667969 5.367188 10.667969 Z " fill-opacity="0.302"/>
  <path d="M 2.910156 7.300781 L 11.46875 7.300781 L 11.46875 12.632812 L 2.910156 12.632812 Z " fill-opacity="0.302"/>
  <use xlink:href="#3" mask="url(#1)"/>
  <path d="M 5.367188 9.941406 L 9.011719 9.941406 C 10.367188 9.941406 11.46875 10.808594 11.46875 11.878906 C 11.46875 12.949219 10.367188 13.816406 9.011719 13.816406 L 5.367188 13.816406 C 4.011719 13.816406 2.910156 12.949219 2.910156 11.878906 C 2.910156 10.808594 4.011719 9.941406 5.367188 9.941406 Z " fill="#dcdcdc"/>
  <path d="M 2.910156 6.574219 L 11.46875 6.574219 L 11.46875 11.90625 L 2.910156 11.90625 Z " fill="#dcdcdc"/>
  <path d="M 11.035156 7.855469 C 11.503906 7.855469 11.878906 8.015625 12.152344 8.335938 C 12.421875 8.652344 12.558594 9.089844 12.558594 9.640625 C 12.558594 10.210938 12.425781 10.652344 12.164062 10.964844 C 11.902344 11.273438 11.527344 11.429688 11.039062 11.429688 C 10.742188 11.429688 10.402344 11.375 10.019531 11.265625 L 10.019531 11.710938 C 10.316406 11.820312 10.679688 11.878906 11.117188 11.878906 C 11.746094 11.878906 12.234375 11.683594 12.578125 11.296875 C 12.921875 10.90625 13.089844 10.351562 13.089844 9.636719 C 13.089844 9.1875 13.007812 8.792969 12.84375 8.457031 C 12.679688 8.121094 12.441406 7.859375 12.128906 7.675781 C 11.816406 7.496094 11.449219 7.402344 11.027344 7.402344 C 10.578125 7.402344 10.1875 7.488281 9.851562 7.652344 L 10.0625 8.089844 C 10.386719 7.933594 10.710938 7.855469 11.035156 7.855469 " fill="#dcdcdc"/>
 </g>
</svg>
